X:193
T:Yidl mtn fidl
O:klezmer
M:2/4
L:1/8
Q:1/4=132
K:Dm
V:1
A,|"Dm" D FA F|"Gm" G2 G2 |"Dm" DF AG/F/ |
"Gm" G3 G|"C" c B/A/G B|"F" A2 "Bb" D2 |"Gm" GG "A7" GF/E/ |
"Dm" D3 A|d dd d|d d3 |"Bb" dd "E7" dd |
"A" Az z2  |:"Dm" dA dA |d3/2 e/4d/4cB |"Am" c/B/A AA |
"A7" A3 A|"Dm" ^G Ad A|^G2 F/E/D |"Gm" ^F/A/G GG |
Gz "E7" ^G2 |"A" AA AA |AA AA |"A7" AG FE |
"Dm" D2 z2 :|





